X:6732
T:Hanner's Jigg. BF11.04
M:6/8
L:1/8
Q:120
C:Browne A hand
S:MS11,c1800.,Browne Coll.,Lakes
R:Jig
O:England
A:Lakes
Z:vmp.Cherri Graebe.
K:C major
c2cc2f|egec3|G2GG2B|dBGG3|!c2cc2f|egec3|AcA BdB|c3C3|!
|g2g gfg|c2cc3|a2a afa|d2dd3|!g2g gfg|c2cc3|AcA BdB|c3C3||
